img/iconsfont/phone.svg

<svg width="16" height="16" viewBox="0 0 16 16" fill="none" xmlns="http://www.w3.org/2000/svg">
<path d="M11.4307 11.0668L10.9152 11.8401C10.8123 11.9944 10.6762 12.1261 10.4969 12.1735C9.90946 12.3287 8.3499 12.3988 5.9755 10.0244C3.60111 7.65004 3.67119 6.09046 3.82641 5.50302C3.8738 5.32368 4.00549 5.1876 4.15983 5.0847L4.93308 4.5692C5.50878 4.1854 5.66435 3.40757 5.28055 2.83187L3.82014 0.64126C3.48514 0.138762 2.83933 -0.0532187 2.28423 0.18468L1.62544 0.467021C1.12498 0.681503 0.716742 1.06643 0.47324 1.55343C0.269804 1.96031 0.112126 2.38877 0.0907621 2.84317C0.0234363 4.27515 0.337433 7.80312 4.26713 11.7328C8.19682 15.6625 11.7248 15.9765 13.1568 15.9092C13.6111 15.8878 14.0396 15.7301 14.4465 15.5267C14.9335 15.2832 15.3184 14.8749 15.5329 14.3745L15.8152 13.7157C16.0531 13.1606 15.8612 12.5148 15.3587 12.1798L13.168 10.7194C12.5923 10.3356 11.8145 10.4911 11.4307 11.0668Z" fill="#898989"/>
</svg>

<svg width="16" height="16" fill="none" xmlns="http://www.w3.org/2000/svg"><path d="M11.43 11.067l-.515.773c-.103.154-.239.286-.418.334-.588.155-2.147.225-4.521-2.15C3.6 7.65 3.67 6.09 3.826 5.503c.048-.18.18-.315.334-.418l.773-.516a1.253 1.253 0 00.348-1.737L3.82.642A1.253 1.253 0 002.283.184l-.659.282c-.5.215-.908.6-1.152 1.086-.203.407-.36.836-.382 1.29-.068 1.432.246 4.96 4.176 8.89 3.93 3.93 7.458 4.243 8.89 4.176.454-.021.883-.179 1.29-.382a2.302 2.302 0 001.086-1.152l.282-.66c.238-.554.046-1.2-.456-1.535l-2.191-1.46a1.253 1.253 0 00-1.737.347z" fill="#898989"/></svg>
